X:1
T:Title
%%score { ( 1 3 ) | ( 2 4 ) }
L:1/8
M:4/4
K:Db
V:1 treble nm="Grand Piano"
V:3 treble 
V:2 bass 
V:4 bass 
V:1
 z4 z2[Q:1/4=100] [FA]2 | [FA]3 [FA] [GB][FA][_F=G][=FA] | E6[K:bass][K:treble] z2 | %3
 [EG]3 [DF] [CE][DF][EG][FA] |[M:3/4] [DF]6 |[M:1/4] [FA]2 | %6
[M:4/4] [FA]3 [_F=G] [FB][=FA] [Fd]>[Ac] | [GB]6 [Ed]2 | [DF]6[K:bass] z2 |[M:3/4] [F,D]6 | %10
[M:1/4][K:treble] A2 |[M:4/4] e6 z2 | d6 z2 | A6[K:bass][K:treble] z2 |[M:3/4] A6 |[M:1/4] [DFA]2 | %16
[M:4/4] [DGB]3 [DG] [Gd]2 [GB]2 | [DFA]6 F2 | A4 e4 |[M:3/4] [Fd]6 |] %20
V:2
 z4 z2 [D,D]2 | [D,D]3 [D,D] [D,D][D,D][D,B,][D,A,] | [A,C]6 [D,A,D]2 | %3
 [A,,A,]3 [A,,A,] [A,,A,][A,,A,][A,,A,][A,,A,] |[M:3/4] [D,A,]6 |[M:1/4] [D,D]2 | %6
[M:4/4] [D,D]3 [D,B,] [D,=G,][D,A,] [D,A,]>[F,D] | [G,D]6 [=G,B,]2 | A,3 A, A,,2 A,,2 | %9
[M:3/4] D,6 |[M:1/4][K:treble] F2 |[M:4/4] G6 z2 | F6[K:bass] z2 | C6[K:treble] z2 | %14
[M:3/4] F6[K:bass] |[M:1/4] D,2 |[M:4/4] z2 z B, B,2 D2 | D,2 D,2 D,2[K:treble] D2 | %18
 F4[K:bass] G4 |[M:3/4] [D,A,]6 |] %20
V:3
 x8 | x8 | z2[K:bass] G,2 E,2[K:treble] F2 | x8 |[M:3/4] x6 |[M:1/4] x2 |[M:4/4] x8 | x8 | %8
 z4[K:bass] A,2 [G,CE]2 |[M:3/4] x6 |[M:1/4][K:treble] x2 |[M:4/4] z2 ED C2 A2 | z DCB, A,2 F2 | %13
 z2[K:bass] G,F, E,2[K:treble] E2 |[M:3/4] z D CB, A,2 |[M:1/4] x2 |[M:4/4] x8 | x8 | %18
 z DDD z B, A,2 |[M:3/4] x6 |] %20
V:4
 x8 | x8 | x8 | x8 |[M:3/4] x6 |[M:1/4] x2 |[M:4/4] x8 | x8 | x8 |[M:3/4] x6 | %10
[M:1/4][K:treble] x2 |[M:4/4] z2 A,2 A,2 G2 | z[K:bass] D,D,D, D,2 D2 | z2 A,,2 A,,2[K:treble] C2 | %14
[M:3/4] z[K:bass] D, D,D, D,2 |[M:1/4] x2 |[M:4/4] G,4 G,4 | x6[K:treble] x2 | %18
 z[K:bass] D,D,F, .[A,C]2 A,,2 |[M:3/4] x6 |] %20

